X: 1811
T: the Fearless Boys   #2
R: march
%S: s:2 b:10(5+5)
B: O'Neill's 1850 #1811
O: J.O'Neill
Z: Transcribed by Bob Safranek, rjs@gsp.org
N: Compacted by using labels and play order [JC]
P: Play |: A1A2 :|: BA2 :|
M: C|
L: 1/8
K: G
"^A"[| (BA) | (G>B)D2 D2EF | GFGA G2 [1 B2 | A^GAB cBA=G | B2E2 E2 :|[2d2 | e^def ge=dc |
| B2G2 "^fine"G2 "^B"[| (AB) | cBcd e2dc | B^ABc d2cB | A^GAB cBA=G | B2E2 "^->A2"E2 |]
